X: 940
T: Sugarfoot Rag
C:Disputed authorship!
B: jims roots
M:C|
L:1/8
Q: 1/4=100
K:A
V:1 
fg |: "A"afab afde |"G"=gega gede | "A"{=c}^ceef ecAF |
[1 "E"EFGB "A"A2e2 :|[2  "E"EFGB "A"A4 ||
"A"{=c}[E2^c2]{=c}[E2^c2] BAFE | ABce cBAB | cABe  cBAF | "E"EFGB "A"A2A2 |
"A"{=c}[E2^c2]{=c}[E2^c2] BAFB | A{=c}^cce cBAc | "D"defa "A"edcf | "E"ecBc "A"A2A2 |]
"A"aeac' aeee | "G"=gdda gdde | "A"ceef ecAc | "E"BAGB "A"A2A2 |
"A"[E=c][E^c][E=c][E^c] BAFA | ABcA BcAB| ceff ecBA | "E"FAGB"A"A2A2 |
% abcbook-tune_id 6298c29700bc4570a00ef11c


% abcbook-boost 0
% abcbook-tablature 
% abcbook-transpose 
% abcbook-lastupdated 1654178455591
% abcbook-soundfonts 
% abcbook-repeats 1


